fs/arrow_sync_circle_16_filled.svg

<svg viewBox="0 0 16 16" fill="none" xmlns="http://www.w3.org/2000/svg" height="1em" width="1em">
  <path d="M8 2C4.68629 2 2 4.68629 2 8C2 11.3137 4.68629 14 8 14C11.3137 14 14 11.3137 14 8C14 4.68629 11.3137 2 8 2ZM5.5 8H6.9992L7.08907 8.00806C7.32232 8.05039 7.4992 8.25454 7.4992 8.5C7.4992 8.77614 7.27534 9 6.9992 9L6.66681 9.00054C6.9743 9.40962 7.46254 9.66642 8 9.66642C8.45937 9.66642 8.88785 9.48031 9.20034 9.15592C9.39191 8.95704 9.70844 8.95112 9.90732 9.1427C10.1062 9.33427 10.1121 9.6508 9.92054 9.84968C9.42145 10.3678 8.7339 10.6664 8 10.6664C7.21392 10.6664 6.49378 10.3232 6.00009 9.7641L6 10.0013L5.99194 10.0912C5.94961 10.3244 5.74546 10.5013 5.5 10.5013C5.22386 10.5013 5 10.2774 5 10.0013V8.5L5.00806 8.41012C5.05039 8.17688 5.25454 8 5.5 8ZM8 5.33358C8.78786 5.33358 9.50771 5.6782 10.0006 6.23675L10 6.00303L10.0081 5.91315C10.0504 5.6799 10.2545 5.50303 10.5 5.50303C10.7761 5.50303 11 5.72689 11 6.00303V7.5L10.9919 7.58988C10.9496 7.82312 10.7455 8 10.5 8H9.0041L8.91423 7.99194C8.68098 7.94961 8.5041 7.74546 8.5041 7.5C8.5041 7.22386 8.72796 7 9.0041 7L9.33289 6.99906C9.02595 6.59113 8.53829 6.33358 8 6.33358C7.5387 6.33358 7.10856 6.52127 6.79583 6.84808C6.60491 7.04759 6.2884 7.05455 6.08889 6.86363C5.88938 6.67271 5.88242 6.35621 6.07334 6.1567C6.57282 5.63475 7.26301 5.33358 8 5.33358Z" fill="#212121"/>
</svg>

<svg viewBox="0 0 16 16" fill="none" xmlns="http://www.w3.org/2000/svg" height="1em" width="1em">
  <path d="M8 2a6 6 0 1 0 0 12A6 6 0 0 0 8 2ZM5.5 8H7l.09.008A.5.5 0 0 1 7 9h-.333a1.667 1.667 0 0 0 2.533.156.5.5 0 1 1 .72.694A2.665 2.665 0 0 1 6 9.764v.237l-.008.09a.5.5 0 0 1-.992-.09V8.5l.008-.09A.5.5 0 0 1 5.5 8ZM8 5.334a2.66 2.66 0 0 1 2 .903v-.234l.008-.09a.5.5 0 0 1 .992.09V7.5l-.008.09A.5.5 0 0 1 10.5 8H9.004l-.09-.008A.5.5 0 0 1 9.004 7h.329a1.667 1.667 0 0 0-2.537-.152.5.5 0 0 1-.723-.691A2.66 2.66 0 0 1 8 5.334Z" fill="#212121"/>
</svg>
